X:30
T:Tom Brown's Burletta
S:American Veteran Fifer, #30
C:By A.F. Hopkins, Co.A.154th O.V.I.
M:6/8
L:1/8
Q:1/8=300
K:D 
%%MIDI program 72
%%MIDI transpose 8
%%MIDI ratio 3 1
|: "^Stop March." A | d>ed cBA | geg f3 | geg fdf | ece dBA |
d>ed cBA | geg f3- | fag ecA | d2z z2 :|
|: f | a3- agf | g3- gfe | fef age | dfd cBA |
d>ed cBA | geg f3- | fag ecA | d2z z2 :|


